packages/dnb-eufemia/assets/icons/cloud_upload_medium.svg

<svg width="24" height="24" viewBox="0 0 24 24" fill="none" xmlns="http://www.w3.org/2000/svg">
<path d="M5.06642 7.08701L5.2056 7.82398L5.06642 7.08701ZM18.9377 9.01201L18.1957 8.90256C18.1624 9.12825 18.2337 9.35682 18.3893 9.52363C18.5449 9.69044 18.768 9.77735 18.9954 9.75979L18.9377 9.01201ZM8.12631 8.32039C8.48545 8.52678 8.94389 8.40295 9.15027 8.04381C9.35666 7.68467 9.23283 7.22623 8.87369 7.01985L8.12631 8.32039ZM5.49091 17.7277C5.90353 17.764 6.26743 17.4589 6.30369 17.0463C6.33995 16.6336 6.03485 16.2697 5.62222 16.2335L5.49091 17.7277ZM18.5 16.25C18.0858 16.25 17.75 16.5858 17.75 17C17.75 17.4142 18.0858 17.75 18.5 17.75V16.25ZM11.25 23C11.25 23.4142 11.5858 23.75 12 23.75C12.4142 23.75 12.75 23.4142 12.75 23H11.25ZM14.4697 18.0303C14.7626 18.3232 15.2374 18.3232 15.5303 18.0303C15.8232 17.7374 15.8232 17.2626 15.5303 16.9697L14.4697 18.0303ZM12 14.5L12.5303 13.9697C12.2374 13.6768 11.7626 13.6768 11.4697 13.9697L12 14.5ZM8.46967 16.9697C8.17678 17.2626 8.17678 17.7374 8.46967 18.0303C8.76256 18.3232 9.23744 18.3232 9.53033 18.0303L8.46967 16.9697ZM22.5 13C22.5 14.7949 21.0449 16.25 19.25 16.25V17.75C21.8734 17.75 24 15.6234 24 13H22.5ZM1.75 12C1.75 9.92481 3.23807 8.19557 5.2056 7.82398L4.92723 6.35003C2.26427 6.85297 0.25 9.19045 0.25 12H1.75ZM5.81155 7.17232C6.1951 3.8223 9.18356 1.75 12 1.75V0.25C8.54448 0.25 4.8049 2.7777 4.32128 7.00169L5.81155 7.17232ZM12 1.75C16.1428 1.75 18.6996 5.48681 18.1957 8.90256L19.6797 9.12146C20.3004 4.91319 17.1692 0.25 12 0.25V1.75ZM18.9954 9.75979C20.8494 9.61661 22.5 11.1369 22.5 13H24C24 10.259 21.6014 8.05407 18.8799 8.26424L18.9954 9.75979ZM5.2056 7.82398C6.20057 7.63606 7.24988 7.81674 8.12631 8.32039L8.87369 7.01985C7.68971 6.33946 6.27694 6.09512 4.92723 6.35003L5.2056 7.82398ZM5.62222 16.2335C3.45236 16.0428 1.75 14.2198 1.75 12H0.25C0.25 15.0042 2.55335 17.4696 5.49091 17.7277L5.62222 16.2335ZM18.5 17.75H19.25V16.25H18.5V17.75ZM15.5303 16.9697L12.5303 13.9697L11.4697 15.0303L14.4697 18.0303L15.5303 16.9697ZM11.4697 13.9697L8.46967 16.9697L9.53033 18.0303L12.5303 15.0303L11.4697 13.9697ZM12.75 23V14.5H11.25V23H12.75Z" fill="black"/>
</svg>

<svg width="24" height="24" viewBox="0 0 24 24" fill="none" xmlns="http://www.w3.org/2000/svg"><path d="m5.066 7.087.14.737-.14-.737Zm13.872 1.925-.742-.11a.75.75 0 0 0 .8.858l-.058-.748ZM8.126 8.32a.75.75 0 1 0 .748-1.3l-.748 1.3Zm-2.635 9.408a.75.75 0 1 0 .131-1.495l-.131 1.495ZM18.5 16.25a.75.75 0 0 0 0 1.5v-1.5ZM11.25 23a.75.75 0 0 0 1.5 0h-1.5Zm3.22-4.97a.75.75 0 1 0 1.06-1.06l-1.06 1.06ZM12 14.5l.53-.53a.75.75 0 0 0-1.06 0l.53.53Zm-3.53 2.47a.75.75 0 1 0 1.06 1.06l-1.06-1.06ZM22.5 13a3.25 3.25 0 0 1-3.25 3.25v1.5A4.75 4.75 0 0 0 24 13h-1.5ZM1.75 12a4.252 4.252 0 0 1 3.456-4.176L4.927 6.35A5.752 5.752 0 0 0 .25 12h1.5Zm4.062-4.828C6.195 3.822 9.184 1.75 12 1.75V.25c-3.456 0-7.195 2.528-7.679 6.752l1.49.17ZM12 1.75c4.143 0 6.7 3.737 6.196 7.153l1.484.218C20.3 4.913 17.17.25 12 .25v1.5Zm6.995 8.01C20.85 9.617 22.5 11.137 22.5 13H24c0-2.741-2.399-4.946-5.12-4.736l.115 1.496ZM5.205 7.824a4.301 4.301 0 0 1 2.921.496l.748-1.3a5.801 5.801 0 0 0-3.947-.67l.279 1.474Zm.417 8.41A4.25 4.25 0 0 1 1.75 12H.25a5.75 5.75 0 0 0 5.24 5.728l.132-1.495ZM18.5 17.75h.75v-1.5h-.75v1.5Zm-2.97-.78-3-3-1.06 1.06 3 3 1.06-1.06Zm-4.06-3-3 3 1.06 1.06 3-3-1.06-1.06ZM12.75 23v-8.5h-1.5V23h1.5Z" fill="#000"/></svg>
